X:1
T:Nailed to the Cross
T:Grant Colfax Tullar
T:Nailed to the Cross
T:Public Domain
T:Public Domain
C:Grant Colfax Tullar
Z:Public Domain
%%score 1 ( 2 3 )
L:1/8
M:4/4
K:F
V:1 treble 
V:2 bass 
V:3 bass 
V:1
 A>A | A2 F>G A A2 A | B2 F>G A2 A>A | A2 G>F E2 F>G | F6 A>A | A2 F>G A2 A>c | B2 F>G A2 A>A | %7
w: 1.~There was|One Who was will- ing to|die in my stead, That a|soul so un- wor- thy might|live; And the|path to the cross He was|will- ing to tread, All the|
w: 2.~He is|ten- der and lov- ing and|pa- tient with me, While He|cleans- es my heart of the|dross; But “there’s|no con- dem- na- tion” —I|know I am free, For my|
w: 3.~I will|cling to my Sav- ior and|ne- ver de- part— I will|joy- ful- ly jour- ney each|day, With a|song on my lips and a|song in my heart, That my|
 A2 G>F E2 A>G | F6 ||"^Refrain" [Ac]>[Ac] | [Ac]2 [^G=B]>[_Bd] [Ac]2 [FA]>[FA] | %11
w: sins of my life to for-|give.|||
w: sins are all nailed to the|cross.|They are|nailed to the cross, They are|
w: sins have been tak- en a-|way.|||
"^pp" [FA]2 [F^G]>[FB] [FA]2 [FA]>[FA] | [FA]2 [FG]>[FG] [FG] [FA]2 [F=B] | [Ec]6 [Bd]>[Be] | %14
w: |||
w: nailed to the cross, O how|much He was will- ing to|bear! With what|
w: |||
 [Af]2 [ce]>[Bd] [Ac]2 [Fc]>[Fc] | [Fd]2 [Fc]>[EB] [FA]2 [FA]>[_EA] | %16
w: ||
w: an- guish and loss Je- sus|went to the cross! But He|
w: ||
 [DA]2 [DG]>[_DG] [CF]2 [CE]>[CE] | [CF]6 |] %18
w: ||
w: car- ried my sins with Him|there.|
w: ||
V:2
 C>C | C2 A,>B, C C2 _E | D2 D>_D C2 C>C | C2 B,>A, G,2 A,>B, | [F,,C,A,]6 C>C | C2 A,>B, C2 F>E | %6
 D2 D>_D C2 C>C | C2 B,>A, G,2 C>B, | [F,,A,]6 || [F,C]>[F,C] | %10
 [F,C]2 [F,D]>[F,E] [F,F]2 [F,E]>[F,E] | [F,C]2 [F,=B,]>[F,D] [F,C]2 [F,C]>[F,C] | %12
 [G,=B,]2 [G,B,]>[G,B,] [G,B,] [G,C]2 [G,D] | [C,C]6 [C,C]>[C,C] | %14
 [F,C]2 [F,D]>[F,E] [F,F]2 [A,C]>[A,C] | B,2 [A,C]>[G,C] [F,C]2 [F,C]>[F,C] | %16
 [B,,C]2 [B,,B,]>[B,,B,] [C,A,]2 [C,G,]>[C,B,] | [F,A,]6 |] %18
V:3
 x2 | F,,4 F,,4 | B,,4 F,,4 | C,4 C,4 | x8 | F,,4 F,,4 | B,,4 F,,4 | C,4 C,4 | x6 || x2 | x8 | x8 | %12
 x8 | x8 | x8 | B,2 x6 | x8 | x6 |] %18

